icon/fa/calendar-xmark.svg

<svg xmlns="http://www.w3.org/2000/svg" viewBox="0 0 448 512"><!--! Font Awesome Free 6.1.2 by @fontawesome - https://fontawesome.com License - https://fontawesome.com/license/free (Icons: CC BY 4.0, Fonts: SIL OFL 1.1, Code: MIT License) Copyright 2022 Fonticons, Inc.--><path d="M160 32v32h128V32c0-17.67 14.3-32 32-32s32 14.33 32 32v32h48c26.5 0 48 21.49 48 48v48H0v-48c0-26.51 21.49-48 48-48h48V32c0-17.67 14.3-32 32-32s32 14.33 32 32zM0 192h448v272c0 26.5-21.5 48-48 48H48c-26.51 0-48-21.5-48-48V192zm304.1 112.1c10.2-8.5 10.2-23.7 0-33.1-8.5-9.3-23.7-9.3-33.1 0l-47 47.1-47.9-47.1c-8.5-9.3-23.7-9.3-33.1 0-9.3 9.4-9.3 24.6 0 33.1l47.1 47.9-47.1 47c-9.3 9.4-9.3 24.6 0 33.1 9.4 10.2 24.6 10.2 33.1 0l47.9-46.2 47 46.2c9.4 10.2 24.6 10.2 33.1 0 10.2-8.5 10.2-23.7 0-33.1l-46.2-47 46.2-47.9z"/></svg>

<svg xmlns="http://www.w3.org/2000/svg" viewBox="0 0 448 512" height="1em" width="1em">
<!--! Font Awesome Free 6.1.2 by @fontawesome - https://fontawesome.com License - https://fontawesome.com/license/free (Icons: CC BY 4.0, Fonts: SIL OFL 1.1, Code: MIT License) Copyright 2022 Fonticons, Inc.-->
  <path d="M160 32V64H288V32C288 14.33 302.3 0 320 0C337.7 0 352 14.33 352 32V64H400C426.5 64 448 85.49 448 112V160H0V112C0 85.49 21.49 64 48 64H96V32C96 14.33 110.3 0 128 0C145.7 0 160 14.33 160 32zM0 192H448V464C448 490.5 426.5 512 400 512H48C21.49 512 0 490.5 0 464V192zM304.1 304.1C314.3 295.6 314.3 280.4 304.1 271C295.6 261.7 280.4 261.7 271 271L224 318.1L176.1 271C167.6 261.7 152.4 261.7 143 271C133.7 280.4 133.7 295.6 143 304.1L190.1 352L143 399C133.7 408.4 133.7 423.6 143 432.1C152.4 442.3 167.6 442.3 176.1 432.1L224 385.9L271 432.1C280.4 442.3 295.6 442.3 304.1 432.1C314.3 423.6 314.3 408.4 304.1 399L257.9 352L304.1 304.1z"/>
</svg>
